public/img/removal/chevron-down-grey.svg

<svg width="32" height="32" viewBox="0 0 32 32" fill="none" xmlns="http://www.w3.org/2000/svg">
<title>Grey Down Chevron</title>
<path d="M21.1733 12.3862L16 17.5595L10.8266 12.3862C10.3066 11.8662 9.46664 11.8662 8.94664 12.3862C8.42664 12.9062 8.42664 13.7462 8.94664 14.2662L15.0666 20.3862C15.5866 20.9062 16.4266 20.9062 16.9466 20.3862L23.0666 14.2662C23.5866 13.7462 23.5866 12.9062 23.0666 12.3862C22.5466 11.8795 21.6933 11.8662 21.1733 12.3862Z" fill="#999999"/>
</svg>

<svg fill="none" height="32" viewBox="0 0 32 32" width="32" xmlns="http://www.w3.org/2000/svg"><path d="m21.1733 12.3862-5.1733 5.1733-5.1734-5.1733c-.52-.52-1.35996-.52-1.87996 0s-.52 1.36 0 1.88l6.11996 6.12c.52.52 1.36.52 1.88 0l6.12-6.12c.52-.52.52-1.36 0-1.88-.52-.5067-1.3733-.52-1.8933 0z" fill="#999"/></svg>
